svg/set/OTP/C.svg

<?xml version="1.0" encoding="UTF-8" standalone="no"?>
<svg
   width="1000"
   height="1000"
   viewBox="0 0 1000 1000"
   version="1.1"
   xml:space="preserve"
   style="clip-rule:evenodd;fill-rule:evenodd;stroke-linejoin:round;stroke-miterlimit:2"
   id="svg9"
   xmlns="http://www.w3.org/2000/svg"
   xmlns:svg="http://www.w3.org/2000/svg"><defs
   id="defs9" />
    <g
   id="C"
   transform="translate(-0.94499999,1.89)">
        <rect
   x="0.94499999"
   y="-1.89"
   width="1000"
   height="1000"
   style="fill:none"
   id="rect1" />
        <g
   transform="translate(0.94518,-1.89036)"
   id="g1">
            <path
   d="m 4.8,83.557 h 986.933 c 0,0 -27.938,19.585 -72.723,164.088 l -37.095,0.186 v 501.278 h 39.231 c 0,0 24.118,113.031 70.461,162.676 H 5.149 c 0,0 23.645,-5.185 72.826,-164.104 h 36.413 V 684.76 H 60.005 V 312.592 h 54.383 V 248.751 H 77.502 c 0,0 -41.367,-141.702 -72.702,-165.194 z"
   style="fill:#ffffff"
   id="path1" />
        </g>
        <g
   transform="translate(0.94518,-1.89036)"
   id="g2">
            <path
   d="M 292.079,362.417 V 633.429 H 109.59 V 362.417 Z m -117.667,151.07 -23.868,68.482 h 103.041 l -23.833,-68.382 c 15.239,-9.315 25.418,-26.108 25.418,-45.26 0,-29.255 -23.752,-53.006 -53.007,-53.006 -29.255,0 -53.006,23.751 -53.006,53.006 0,19.084 10.107,35.825 25.255,45.16 z"
   id="path2" />
        </g>
        <g
   transform="translate(0.94518,-1.89036)"
   id="g3">
            <rect
   x="169.274"
   y="244.71001"
   width="82.199997"
   height="70.806"
   id="rect2" />
        </g>
        <g
   transform="translate(0.94518,-1.89036)"
   id="g4">
            <rect
   x="169.274"
   y="681.75201"
   width="82.199997"
   height="67.957001"
   id="rect3" />
        </g>
        <g
   transform="translate(0.94518,-1.89036)"
   id="g5">
            <rect
   x="359.431"
   y="244.71001"
   width="82.966003"
   height="504.99899"
   id="rect4" />
        </g>
        <g
   transform="translate(194.391,-1.89036)"
   id="g6">
            <rect
   x="359.431"
   y="244.71001"
   width="82.966003"
   height="504.99899"
   id="rect5" />
        </g>
        <g
   transform="translate(385.705,-1.89036)"
   id="g7">
            <rect
   x="359.431"
   y="244.71001"
   width="82.966003"
   height="504.99899"
   id="rect6" />
        </g>
        <g
   transform="translate(0.94518,-1.89036)"
   id="g8">
            <path
   d="m 115.108,197.771 h 765.816 l 18.407,-64.424 H 96.702 Z"
   id="path7" />
        </g>
        <g
   transform="matrix(1,0,0,-1,0.94518,994.768)"
   id="g9">
            <path
   d="m 115.108,197.771 h 765.816 l 18.407,-64.424 H 96.702 Z"
   id="path8" />
        </g>
    </g>
</svg>

<?xml version="1.0" encoding="UTF-8" standalone="no"?>
<!DOCTYPE svg PUBLIC "-//W3C//DTD SVG 1.1//EN" "http://www.w3.org/Graphics/SVG/1.1/DTD/svg11.dtd">
<svg width="100%" height="100%" viewBox="0 0 1000 1000" version="1.1" xmlns="http://www.w3.org/2000/svg" xmlns:xlink="http://www.w3.org/1999/xlink" xml:space="preserve" xmlns:serif="http://www.serif.com/" style="fill-rule:evenodd;clip-rule:evenodd;stroke-linejoin:round;stroke-miterlimit:2;">
    <g id="C" transform="matrix(1,0,0,1,-0.94518,1.89036)">
        <rect x="0.945" y="-1.89" width="1000" height="1000" style="fill:none;"/>
        <g transform="matrix(1,0,0,1,0.94518,-1.89036)">
            <path d="M4.8,83.557L991.733,83.557C991.733,83.557 963.795,103.142 919.01,247.645L881.915,247.831L881.915,749.109L921.146,749.109C921.146,749.109 945.264,862.14 991.607,911.785L5.149,911.785C5.149,911.785 28.794,906.6 77.975,747.681L114.388,747.681L114.388,684.76L60.005,684.76L60.005,312.592L114.388,312.592L114.388,248.751L77.502,248.751C77.502,248.751 36.135,107.049 4.8,83.557Z" style="fill:white;"/>
        </g>
        <g transform="matrix(1,0,0,1,0.94518,-1.89036)">
            <path d="M292.079,362.417L292.079,633.429L109.59,633.429L109.59,362.417L292.079,362.417ZM174.412,513.487L150.544,581.969L253.585,581.969L229.752,513.587C244.991,504.272 255.17,487.479 255.17,468.327C255.17,439.072 231.418,415.321 202.163,415.321C172.908,415.321 149.157,439.072 149.157,468.327C149.157,487.411 159.264,504.152 174.412,513.487Z"/>
        </g>
        <g transform="matrix(1,0,0,1,0.94518,-1.89036)">
            <rect x="169.274" y="244.71" width="82.2" height="70.806"/>
        </g>
        <g transform="matrix(1,0,0,1,0.94518,-1.89036)">
            <rect x="169.274" y="681.752" width="82.2" height="67.957"/>
        </g>
        <g transform="matrix(1,0,0,1,0.94518,-1.89036)">
            <rect x="359.431" y="244.71" width="82.966" height="504.999"/>
        </g>
        <g transform="matrix(1,0,0,1,194.391,-1.89036)">
            <rect x="359.431" y="244.71" width="82.966" height="504.999"/>
        </g>
        <g transform="matrix(1,0,0,1,385.705,-1.89036)">
            <rect x="359.431" y="244.71" width="82.966" height="504.999"/>
        </g>
        <g transform="matrix(1,0,0,1,0.94518,-1.89036)">
            <path d="M115.108,197.771L880.924,197.771L899.331,133.347L96.702,133.347L115.108,197.771Z"/>
        </g>
        <g transform="matrix(1,0,0,-1,0.94518,994.768)">
            <path d="M115.108,197.771L880.924,197.771L899.331,133.347L96.702,133.347L115.108,197.771Z"/>
        </g>
    </g>
</svg>
